X:42
T:Trip to Sainsbury's
M:4/4
L:1/8
C:Jean Pierre Rasle
S:Cock & Bull Band - Below the Belt (1993)
K:Gm
G2 AB AB c2 | B2 d2 c2 ({dc}B)c | d2 g2 ^fdBc | d2 d2 A4 |\
G2 AB AB c2 | B2 d2 c2 ({dc}B)c | d2 g2 ^fdBc | d2 d2 G4 :|
|: ^fg a2 d3 c | cdcB A3G | FGAc BABc | d2 g2 ^f3 e |\
^fg a2 d3 c | cdcB A3 G | FGAc BABc | d2 d2 g4 :|

